assets/images/money-bill-wave.svg

<svg viewBox="0 0 576 512" xmlns="http://www.w3.org/2000/svg"><path d="m0 112.5v309.8c0 18 10.1 35 27 41.3 87 32.5 174 10.3 261-11.9 79.8-20.3 159.6-40.7 239.3-18.9 23 6.3 48.7-9.5 48.7-33.4v-309.7c0-18-10.1-35-27-41.3-87-32.5-174-10.3-261 11.9-79.8 20.3-159.6 40.6-239.3 18.8-23.1-6.3-48.7 9.5-48.7 33.4zm288 239.5c-44.2 0-80-43-80-96s35.8-96 80-96 80 43 80 96-35.8 96-80 96zm-224 0c35.3 0 64 28.7 64 64h-64zm64-208c0 35.3-28.7 64-64 64v-64zm384 160v64h-64c0-35.3 28.7-64 64-64zm-64-208h64v64c-35.3 0-64-28.7-64-64z"/></svg>

<svg xmlns="http://www.w3.org/2000/svg" viewBox="0 0 576 512"><!--! Font Awesome Pro 6.4.0 by @fontawesome - https://fontawesome.com License - https://fontawesome.com/license (Commercial License) Copyright 2023 Fonticons, Inc. --><path d="M0 112.5V422.3c0 18 10.1 35 27 41.3c87 32.5 174 10.3 261-11.9c79.8-20.3 159.6-40.7 239.3-18.9c23 6.3 48.7-9.5 48.7-33.4V89.7c0-18-10.1-35-27-41.3C462 15.9 375 38.1 288 60.3C208.2 80.6 128.4 100.9 48.7 79.1C25.6 72.8 0 88.6 0 112.5zM288 352c-44.2 0-80-43-80-96s35.8-96 80-96s80 43 80 96s-35.8 96-80 96zM64 352c35.3 0 64 28.7 64 64H64V352zm64-208c0 35.3-28.7 64-64 64V144h64zM512 304v64H448c0-35.3 28.7-64 64-64zM448 96h64v64c-35.3 0-64-28.7-64-64z"/></svg>
